icons/desktop/20/paw-print-20.svg

<svg width="20" height="20" viewBox="0 0 20 20" fill="none" xmlns="http://www.w3.org/2000/svg">
<path fill-rule="evenodd" clip-rule="evenodd" d="M10 6.5C11.398 6.50001 12.6758 7.34249 13.2568 8.64648C13.8828 10.0483 14.7361 11.3133 15.791 12.4062L16.5508 13.1924C17.1717 13.8344 17.5146 14.6792 17.5146 15.5752C17.5146 17.141 16.3561 18.4706 14.8193 18.6777C13.2273 18.8927 11.606 19.001 10.001 19.001L10 19C8.38214 19 6.7493 18.8898 5.14844 18.6719C3.63044 18.4669 2.48535 17.1418 2.48535 15.5908C2.4854 14.6849 2.8283 13.8334 3.4502 13.1914L4.20898 12.4062C5.2649 11.3133 6.11718 10.0493 6.74316 8.64648C7.32416 7.34248 8.602 6.5 10 6.5ZM10 8.25C9.292 8.25 8.64182 8.6854 8.34082 9.3584C7.63284 10.9472 6.6657 12.3812 5.4668 13.6221L4.70703 14.4082C4.40712 14.7182 4.2354 15.1479 4.23535 15.5908C4.23535 16.2708 4.72887 16.8494 5.38281 16.9385C8.4158 17.3505 11.54 17.3524 14.583 16.9434C15.256 16.8524 15.7637 16.2689 15.7637 15.5879C15.7636 15.137 15.5969 14.7241 15.293 14.4102L14.5322 13.623C13.3333 12.3831 12.3662 10.9482 11.6582 9.35938C11.3572 8.68539 10.707 8.25099 9.99902 8.25098L10 8.25Z" fill="black"/>
<path d="M1.875 7C2.91053 7 3.75 8.11929 3.75 9.5C3.75 10.8807 2.91053 12 1.875 12C0.839466 12 0 10.8807 0 9.5C0 8.11929 0.839466 7 1.875 7Z" fill="black"/>
<path d="M18.125 7C19.1605 7 20 8.11929 20 9.5C20 10.8807 19.1605 12 18.125 12C17.0895 12 16.25 10.8807 16.25 9.5C16.25 8.11929 17.0895 7 18.125 7Z" fill="black"/>
<path d="M6.875 1C7.91053 1 8.75 2.11929 8.75 3.5C8.75 4.88071 7.91053 6 6.875 6C5.83947 6 5 4.88071 5 3.5C5 2.11929 5.83947 1 6.875 1Z" fill="black"/>
<path d="M13.125 1C14.1605 1 15 2.11929 15 3.5C15 4.88071 14.1605 6 13.125 6C12.0895 6 11.25 4.88071 11.25 3.5C11.25 2.11929 12.0895 1 13.125 1Z" fill="black"/>
</svg>

<!-- This Source Code Form is subject to the terms of the Mozilla Public
   - License, v. 2.0. If a copy of the MPL was not distributed with this
   - file, You can obtain one at http://mozilla.org/MPL/2.0/. -->
<svg xmlns="http://www.w3.org/2000/svg" width="20" height="20" fill="context-fill" fill-opacity="context-fill-opacity" viewBox="0 0 20 20">
    <path fill-rule="evenodd" d="M10 6.5c1.398 0 2.676.842 3.257 2.146a13.1 13.1 0 0 0 2.534 3.76l.76.786c.62.642.964 1.487.964 2.383a3.13 3.13 0 0 1-2.696 3.103 36 36 0 0 1-4.818.323L10 19c-1.618 0-3.25-.11-4.852-.328-1.518-.205-2.663-1.53-2.663-3.081 0-.906.343-1.758.965-2.4l.759-.785a13 13 0 0 0 2.534-3.76C7.324 7.342 8.602 6.5 10 6.5m0 1.75c-.708 0-1.358.435-1.66 1.108a14.8 14.8 0 0 1-2.873 4.264l-.76.786c-.3.31-.472.74-.472 1.183 0 .68.494 1.258 1.148 1.348a34.5 34.5 0 0 0 9.2.004 1.37 1.37 0 0 0 1.18-1.355c0-.451-.166-.864-.47-1.178l-.76-.787a14.8 14.8 0 0 1-2.875-4.264c-.3-.674-.951-1.108-1.659-1.108z" clip-rule="evenodd" />
    <path d="M1.875 7C2.911 7 3.75 8.12 3.75 9.5S2.91 12 1.875 12 0 10.88 0 9.5.84 7 1.875 7M18.125 7C19.16 7 20 8.12 20 9.5s-.84 2.5-1.875 2.5-1.875-1.12-1.875-2.5.84-2.5 1.875-2.5M6.875 1C7.911 1 8.75 2.12 8.75 3.5S7.91 6 6.875 6 5 4.88 5 3.5 5.84 1 6.875 1M13.125 1C14.161 1 15 2.12 15 3.5S14.16 6 13.125 6 11.25 4.88 11.25 3.5 12.09 1 13.125 1" />
</svg>
